X:534
T:Merry Lads of Ayr, The
R:Reel
C:John Riddell
B:The Athole Collection
M:C|
L:1/8
K:C
f|eccB cGGf|ecce fagf|eccB cGGc|A/B/c GE D2D:|
e|cega gede|cega g2ed|cega gece|fage d2de|cega gede|
c/c/c ga g2ed|cega gece|fage defa||

